X: 128
T:Sally Ann
C:Traditional
S:Approximated from Mark O'Connor version by S.C.
R:Breakdown
F:http://deliveryboys.net/publicdo.abc
M:4/4
L:1/8
Q:1/2=80
K:G
|:de|"G"g-fga g-fed|"C"[e2e2][ee][ef][e2e2]ef
|g-aba g2((4fgfe|"G"d2)de d2eg
|e-dBA G-DEG|"Am"[A2A2][AA][AB][A2A2]AB
|"D"c-BAG F-DEF|"G"[G2B2][GB][GB][G2B2]:||
|AB|:d-edB G-DEG|"Am"[A2A2][AA][AB][A2A2] AB
|"D"c-BAG F-DEF|"G"[G2B2][GB][GB][G2B2] AB:||


